svg/user/IDcard_fill.svg

<?xml version="1.0" encoding="UTF-8"?>
<svg width="24px" height="24px" viewBox="0 0 24 24" version="1.1" xmlns="http://www.w3.org/2000/svg" xmlns:xlink="http://www.w3.org/1999/xlink">
    <title>IDcard_fill</title>
    <g id="页面-1" stroke="none" stroke-width="1" fill="none" fill-rule="evenodd">
        <g id="User" transform="translate(-624.000000, -48.000000)">
            <g id="IDcard_fill" transform="translate(624.000000, 48.000000)">
                 <path d="M24,0 L24,24 L0,24 L0,0 L24,0 Z M12.5934901,23.257841 L12.5819402,23.2595131 L12.5108777,23.2950439 L12.4918791,23.2987469 L12.4918791,23.2987469 L12.4767152,23.2950439 L12.4056548,23.2595131 C12.3958229,23.2563662 12.3870493,23.2590235 12.3821421,23.2649074 L12.3780323,23.275831 L12.360941,23.7031097 L12.3658947,23.7234994 L12.3769048,23.7357139 L12.4804777,23.8096931 L12.4953491,23.8136134 L12.4953491,23.8136134 L12.5071152,23.8096931 L12.6106902,23.7357139 L12.6232938,23.7196733 L12.6232938,23.7196733 L12.6266527,23.7031097 L12.609561,23.275831 C12.6075724,23.2657013 12.6010112,23.2592993 12.5934901,23.257841 L12.5934901,23.257841 Z M12.8583906,23.1452862 L12.8445485,23.1473072 L12.6598443,23.2396597 L12.6498822,23.2499052 L12.6498822,23.2499052 L12.6471943,23.2611114 L12.6650943,23.6906389 L12.6699349,23.7034178 L12.6699349,23.7034178 L12.678386,23.7104931 L12.8793402,23.8032389 C12.8914285,23.8068999 12.9022333,23.8029875 12.9078286,23.7952264 L12.9118235,23.7811639 L12.8776777,23.1665331 C12.8752882,23.1545897 12.8674102,23.1470016 12.8583906,23.1452862 L12.8583906,23.1452862 Z M12.1430473,23.1473072 C12.1332178,23.1423925 12.1221763,23.1452606 12.1156365,23.1525954 L12.1099173,23.1665331 L12.0757714,23.7811639 C12.0751323,23.7926639 12.0828099,23.8018602 12.0926481,23.8045676 L12.108256,23.8032389 L12.3092106,23.7104931 L12.3186497,23.7024347 L12.3186497,23.7024347 L12.3225043,23.6906389 L12.340401,23.2611114 L12.337245,23.2485176 L12.337245,23.2485176 L12.3277531,23.2396597 L12.1430473,23.1473072 Z" id="MingCute" fill-rule="nonzero"></path>
                <path d="M20,4 C21.1046,4 22,4.89543 22,6 L22,18 C22,19.1046 21.1046,20 20,20 L4,20 C2.89543,20 2,19.1046 2,18 L2,6 C2,4.89543 2.89543,4 4,4 L20,4 Z M9.5,12 L7.5,12 C6.1745184,12 5.08996147,13.0315469 5.00531769,14.3356256 L5,14.5 L5,15 C5,15.5523 5.44772,16 6,16 C6.51283143,16 6.93550653,15.613973 6.9932722,15.1166239 L7,15 L7,14.5 C7,14.2545778 7.17687704,14.0504 7.41012499,14.0080571 L7.5,14 L9.5,14 C9.74545778,14 9.9496079,14.1769086 9.99194425,14.4101355 L10,14.5 L10,15 C10,15.5523 10.4477,16 11,16 C11.51285,16 11.9355092,15.613973 11.9932725,15.1166239 L12,15 L12,14.5 C12,13.174528 10.9684531,12.0899622 9.66437437,12.0053177 L9.5,12 Z M18,13 L14,13 L13.8833761,13.0067275 C13.386027,13.0644908 13,13.48715 13,14 C13,14.51285 13.386027,14.9355092 13.8833761,14.9932725 L14,15 L18,15 L18.1166239,14.9932725 C18.613973,14.9355092 19,14.51285 19,14 C19,13.48715 18.613973,13.0644908 18.1166239,13.0067275 L18,13 Z M16,10 L14,10 C13.4477,10 13,10.4477 13,11 C13,11.51285 13.386027,11.9355092 13.8833761,11.9932725 L14,12 L16,12 C16.5523,12 17,11.5523 17,11 C17,10.48715 16.613973,10.0644908 16.1166239,10.0067275 L16,10 Z M8.5,8 C7.5335,8 6.75,8.7835 6.75,9.75 C6.75,10.7165 7.5335,11.5 8.5,11.5 C9.4665,11.5 10.25,10.7165 10.25,9.75 C10.25,8.7835 9.4665,8 8.5,8 Z" id="形状" fill="#09244B"></path>
            </g>
        </g>
    </g>
</svg>

<svg xmlns="http://www.w3.org/2000/svg" width="24" height="24"><g fill="none" fill-rule="evenodd"><path d="M24 0v24H0V0h24ZM12.593 23.258l-.011.002-.071.035-.02.004-.014-.004-.071-.035c-.01-.004-.019-.001-.024.005l-.004.01-.017.428.005.02.01.013.104.074.015.004.012-.004.104-.074.012-.016.004-.017-.017-.427c-.002-.01-.009-.017-.017-.018Zm.265-.113-.013.002-.185.093-.01.01-.003.011.018.43.005.012.008.007.201.093c.012.004.023 0 .029-.008l.004-.014-.034-.614c-.003-.012-.01-.02-.02-.022Zm-.715.002a.023.023 0 0 0-.027.006l-.006.014-.034.614c0 .012.007.02.017.024l.015-.002.201-.093.01-.008.004-.011.017-.43-.003-.012-.01-.01-.184-.092Z"/><path fill="#09244B" d="M20 4a2 2 0 0 1 2 2v12a2 2 0 0 1-2 2H4a2 2 0 0 1-2-2V6a2 2 0 0 1 2-2h16ZM9.5 12h-2a2.5 2.5 0 0 0-2.495 2.336L5 14.5v.5a1 1 0 0 0 1.993.117L7 15v-.5a.5.5 0 0 1 .41-.492L7.5 14h2a.5.5 0 0 1 .492.41l.008.09v.5a1 1 0 0 0 1.993.117L12 15v-.5a2.5 2.5 0 0 0-2.336-2.495L9.5 12Zm8.5 1h-4l-.117.007a1 1 0 0 0 0 1.986L14 15h4l.117-.007a1 1 0 0 0 0-1.986L18 13Zm-2-3h-2a1 1 0 0 0-.117 1.993L14 12h2a1 1 0 0 0 .117-1.993L16 10ZM8.5 8a1.75 1.75 0 1 0 0 3.5 1.75 1.75 0 0 0 0-3.5Z"/></g></svg>
